X:321
T: Merry May the Maid Be
N: O'Farrell's Pocket Companion v.4 (Sky ed. p.142)
N: "Scotch"
M: C
R: reel
L: 1/8
Q: 350
K: Em
GA| B3c BAGF| E3F G2A2| B3c d2 cB| e4 A2 GA|
B3c BAGF| E3F G2A2| B2g2f2g2| e4 e2 :|
B2| e3f g2d2| Bc d2G2B2| A3B c3d|e4 A2dc|
B3c BAGF| E3F G2A2| B2g2f2g2| e4 e2 :|
